icon/pk/diving-bottle.svg

<svg viewBox="0 0 48 48" fill="none" xmlns="http://www.w3.org/2000/svg" height="1em" width="1em">
  <path d="M4 40L6.5 41.3514C8.1 42.2162 9.9 42.2162 11.5 41.3514C13.1 40.4865 14.9 40.4865 16.5 41.3514C18.1 42.2162 19.9 42.2162 21.5 41.3514C23.1 40.4865 24.9 40.4865 26.5 41.3514C28.1 42.2162 29.9 42.2162 31.5 41.3514C33.1 40.4865 34.9 40.4865 36.5 41.3514C38.1 42.2162 39.9 42.2162 41.5 41.3514L44 40" stroke="black" stroke-width="4" stroke-miterlimit="2" stroke-linecap="round" stroke-linejoin="round"/>
  <path d="M14 11V4" stroke="black" stroke-width="4" stroke-miterlimit="2" stroke-linecap="round" stroke-linejoin="round"/>
  <path d="M31 11V4" stroke="black" stroke-width="4" stroke-miterlimit="2" stroke-linecap="round" stroke-linejoin="round"/>
  <path d="M21 8V4" stroke="black" stroke-width="4" stroke-miterlimit="2" stroke-linecap="round" stroke-linejoin="round"/>
  <path d="M38 8V4" stroke="black" stroke-width="4" stroke-miterlimit="2" stroke-linecap="round" stroke-linejoin="round"/>
  <line x1="12" y1="6" x2="20" y2="6" stroke="black" stroke-width="4" stroke-linecap="round" stroke-linejoin="round"/>
  <line x1="29" y1="6" x2="37" y2="6" stroke="black" stroke-width="4" stroke-linecap="round" stroke-linejoin="round"/>
  <rect x="10" y="11" width="8" height="24" rx="4" stroke="black" stroke-width="4" stroke-linecap="round" stroke-linejoin="round"/>
  <rect x="27" y="11" width="8" height="24" rx="4" stroke="black" stroke-width="4" stroke-linecap="round" stroke-linejoin="round"/>
  <path d="M27 15C27 12.7909 28.7909 11 31 11C33.2091 11 35 12.7909 35 15V19H27V15Z" fill="#2F88FF" stroke="black" stroke-width="4" stroke-linecap="round" stroke-linejoin="round"/>
  <path d="M10 15C10 12.7909 11.7909 11 14 11C16.2091 11 18 12.7909 18 15V19H10V15Z" fill="#2F88FF" stroke="black" stroke-width="4" stroke-linecap="round" stroke-linejoin="round"/>
</svg>

<svg width="48" height="48" fill="none" xmlns="http://www.w3.org/2000/svg"><path d="m4 40 2.5 1.351c1.6.865 3.4.865 5 0 1.6-.864 3.4-.864 5 0 1.6.865 3.4.865 5 0 1.6-.864 3.4-.864 5 0 1.6.865 3.4.865 5 0 1.6-.864 3.4-.864 5 0 1.6.865 3.4.865 5 0L44 40M14 11V4M31 11V4M21 8V4M38 8V4" stroke="#000" stroke-width="4" stroke-miterlimit="2" stroke-linecap="round" stroke-linejoin="round"/><path stroke="#000" stroke-width="4" stroke-linecap="round" stroke-linejoin="round" d="M12 6h8M29 6h8"/><rect x="10" y="11" width="8" height="24" rx="4" stroke="#000" stroke-width="4" stroke-linecap="round" stroke-linejoin="round"/><rect x="27" y="11" width="8" height="24" rx="4" stroke="#000" stroke-width="4" stroke-linecap="round" stroke-linejoin="round"/><path d="M27 15a4 4 0 0 1 8 0v4h-8v-4ZM10 15a4 4 0 0 1 8 0v4h-8v-4Z" fill="#2F88FF" stroke="#000" stroke-width="4" stroke-linecap="round" stroke-linejoin="round"/></svg>
